/* XPM */
static char * icon_xpm[] = {
"22 22 210 2",
"  	c None",
". 	c #1B110D",
"+ 	c #2A1A18",
"@ 	c #2B1B1B",
"# 	c #1A2129",
"$ 	c #1B242E",
"% 	c #371E19",
"& 	c #2C231F",
"* 	c #1E2833",
"= 	c #3B2620",
"- 	c #212C37",
"; 	c #302D25",
"> 	c #282F2F",
", 	c #2B3134",
"' 	c #283239",
") 	c #263340",
"! 	c #2E3332",
"~ 	c #403027",
"{ 	c #3B3226",
"] 	c #2D353B",
"^ 	c #313634",
"/ 	c #2E3835",
"( 	c #4C312F",
"_ 	c #32393E",
": 	c #463731",
"< 	c #2D3C4B",
"[ 	c #3E3A2F",
"} 	c #483A37",
"| 	c #304051",
"1 	c #5E3634",
"2 	c #374046",
"3 	c #324151",
"4 	c #4B3D32",
"5 	c #533B32",
"6 	c #324354",
"7 	c #45403A",
"8 	c #484134",
"9 	c #4B403F",
"0 	c #5F3B37",
"a 	c #354554",
"b 	c #524039",
"c 	c #344657",
"d 	c #354658",
"e 	c #4C4335",
"f 	c #404648",
"g 	c #603F35",
"h 	c #544643",
"i 	c #574643",
"j 	c #3C4E60",
"k 	c #424E59",
"l 	c #3C5165",
"m 	c #3D5266",
"n 	c #3D5267",
"o 	c #4C514D",
"p 	c #46525D",
"q 	c #3F5469",
"r 	c #5B5041",
"s 	c #4A565A",
"t 	c #435A71",
"u 	c #4C5A5B",
"v 	c #4C5965",
"w 	c #445B71",
"x 	c #52595C",
"y 	c #445B72",
"z 	c #5B594D",
"A 	c #5A5A50",
"B 	c #5A5A54",
"C 	c #4C5D6C",
"D 	c #525C66",
"E 	c #475E75",
"F 	c #475E76",
"G 	c #485F76",
"H 	c #4A5F72",
"I 	c #6D5855",
"J 	c #486078",
"K 	c #486079",
"L 	c #4A6075",
"M 	c #585E62",
"N 	c #5D5E57",
"O 	c #4E626B",
"P 	c #52616F",
"Q 	c #655E5B",
"R 	c #5E605D",
"S 	c #755B5B",
"T 	c #765B59",
"U 	c #6F5D5B",
"V 	c #4C657E",
"W 	c #696252",
"X 	c #566570",
"Y 	c #63635E",
"Z 	c #5C646A",
"` 	c #536678",
" .	c #51677E",
"..	c #7B5E5E",
"+.	c #53687E",
"@.	c #766160",
"#.	c #646667",
"$.	c #61676A",
"%.	c #506A84",
"&.	c #506A85",
"*.	c #7E6160",
"=.	c #506B85",
"-.	c #656869",
";.	c #516C86",
">.	c #7E6265",
",.	c #536C84",
"'.	c #7A6464",
").	c #566C81",
"!.	c #526D88",
"~.	c #536D88",
"{.	c #536F8B",
"].	c #5D6E7F",
"^.	c #596F82",
"/.	c #606E7B",
"(.	c #54708C",
"_.	c #567087",
":.	c #696D6F",
"<.	c #6C6D6D",
"[.	c #5B7085",
"}.	c #916468",
"|.	c #56728E",
"1.	c #56738F",
"2.	c #567390",
"3.	c #577390",
"4.	c #67717A",
"5.	c #577491",
"6.	c #5F7389",
"7.	c #587591",
"8.	c #5B7692",
"9.	c #727372",
"0.	c #72746E",
"a.	c #73766E",
"b.	c #5C7996",
"c.	c #727676",
"d.	c #5D7A98",
"e.	c #6E7880",
"f.	c #5F7B97",
"g.	c #687B89",
"h.	c #767A7B",
"i.	c #637D97",
"j.	c #607E9C",
"k.	c #797C7F",
"l.	c #88797A",
"m.	c #66809A",
"n.	c #67829C",
"o.	c #917A79",
"p.	c #69849F",
"q.	c #6785A2",
"r.	c #6985A2",
"s.	c #6C87A3",
"t.	c #858480",
"u.	c #868482",
"v.	c #6D89A5",
"w.	c #6F8CA8",
"x.	c #718CA8",
"y.	c #718DA9",
"z.	c #7B8EA0",
"A.	c #7A8FA1",
"B.	c #958C8A",
"C.	c #7C92A7",
"D.	c #918F89",
"E.	c #97908E",
"F.	c #939290",
"G.	c #8196AB",
"H.	c #939491",
"I.	c #919694",
"J.	c #999687",
"K.	c #8D98A1",
"L.	c #839BB3",
"M.	c #969999",
"N.	c #849CB3",
"O.	c #979F9B",
"P.	c #9C9E9C",
"Q.	c #9D9E9A",
"R.	c #8EA4BA",
"S.	c #90A6BD",
"T.	c #A3A4A1",
"U.	c #91A7BD",
"V.	c #92A8BE",
"W.	c #93A8BE",
"X.	c #94A9BE",
"Y.	c #A0A9B2",
"Z.	c #A8A8A5",
"`.	c #B2A6A6",
" +	c #97ACC0",
".+	c #98ACC1",
"++	c #99ADC2",
"@+	c #ACAEAB",
"#+	c #B7B0B0",
"$+	c #A8B9CA",
"%+	c #B6B7B5",
"&+	c #A9BACB",
"*+	c #B9BBB9",
"=+	c #BEBFBD",
"-+	c #C2C2C1",
";+	c #C7C2C1",
">+	c #C3C3C3",
",+	c #C5C5C4",
"'+	c #C7C6C6",
")+	c #C5C7C7",
"!+	c #CFD1D2",
"~+	c #DBDCDB",
"{+	c #DCDCDB",
"]+	c #E2DEDE",
"^+	c #E5E0E0",
"/+	c #E2E6EA",
"(+	c #EDE7E7",
"_+	c #ECE8E7",
":+	c #EAE9E8",
"<+	c #ECECEB",
"                                  !+Y.=+    ",
"                                %+_ n.+.4./+",
"                              *+, [.p.m.O e.",
"                            @+> z.S.s.q m ) ",
"                  ^+]+    T./ A.U.x.2.n # <.",
"              `.@.T *.'.u.] C.W.y.7.y $ 9.  ",
"          (+S ..o.+ I ( . G.V.w.b.w * $.    ",
"        _+U @ l.>.= J.: 0 6.i.j.L ' R       ",
"        ;+} Q 9 }.1 ~ % g  .| u 0.F.        ",
"        E.h D.A { W r 5 x 3.!.Z t.:+        ",
"        #+i 7 ; [ e 8 o _.3.K M >+          ",
"          B.& b 4 z C =.(.{.m k.            ",
"          P.k /.X ^.f.d.5.t v {+            ",
"        M.P ++L.~.G 8.&.l p )+              ",
"      I.].$+ +q.1.< ) - D ~+                ",
"    K.).&+.+r.3.V c #.'+                    ",
"  O.H R. +v.|.J 3 -.                        ",
"Q.g.X.N.,.;.F a :.                          ",
"Y f ` m.%.d j h.                            ",
"-+B 2 6 E s c.<+                            ",
"  ,+N ! ^ a.                                ",
"      H.Z.                                  "};
